!!!OTL: Winterabend.
!!!OTL-incipit:NICHTS BESSRES GIBT ES WEIT UND BREIT
!!!COM: G. W. Fink
!!!ARE: Europa, Mitteleuropa, Deutschland
!!!SCT: F0205
!!!TXL: @@DE
!!!YEM: Copyright 1995, estate of Helmut Schaffrath.
**kern	**text
*ICvox	*
*Ivox	*
*clefG2	*
*M2/4	*
*k[f#]	*
*G:	*
!LO:TX:a:t=Innig froh.	!
!LO:TX:a:t=Dreiſtimmig für Sopran, Tenor und Baß, auch ohne Begleitung.	!
{16.gL	1._Nichts
32aJ	.
=1	=1
8b'	Beßres
8b'	.
8b'	gibt
8b'	es
=2	=2
(16ddL	weit
16ccJ)	.
8a'	und
8g'}	breit,
{(16.f#L	wohl
32gJ)	.
=3	=3
8a'	auf
8a'	der
8b'	ganʒen
8dd'	.
=4	=4
4a	Welt,
8r}	.
{16.gL	Als
32aJ	.
=5	=5
8b'	wenn
8b'	man
8b'	mit
8b'	Ver-
=6	=6
(16ddL	-gnüglich-
16ccJ)	.
8a'	.
8g'}	-keit
{(16.f#L	ſich
32gJ)	.
=7	=7
8a'	hübſch
8a'	ʒu-
8b'	-ſammen
8dd'	.
=8	=8
4a	hält.
8r}	.
{8dd^^	Da
=9	=9
8cc'	wird,
8cc'	bei
8b'	Schwatʒ
8b'	und
=10	=10
(16aL	Sing
16gJ)	.
(16aL	und
16bJ)	.
8g}	Sang,
{8dd^^	der
=11	=11
8cc	A-
8cc	-bend
8b	kei-
8b	-ner
=12	=12
(16aL	See-
16gJ)	.
(16aL	-le
16bJ)	.
8g}	lang,
{8g	der
=13	=13
4.ee	A-
8ee	-bend
=14	=14
4.ee	kei-
(16ddL	-ner
16ccJ)	.
=15	=15
8b/'	See-
8a'	-le
8g'}	lang.
{16g	Tralle-
16a	.
=16	=16
4b/	-ra-
16a	-ra,
16r	.
16a	tral-
16b/	-le-
=17	=17
4cc	-ra-
16b	-ra,
16r}	.
{16b	tral-
16cc	-le-
=18	=18
8dd'	-ral-
8dd'	-la-
8cc'	-la-
8b'	-la,
=19	=19
16bq	.
16a^^	tral-
16g	-le-
16a	-ral-
16b/	-le-
8a}	-ra,
{16g	tral-
16g	-le-
=20	=20
4b	-ra-
16a	-ra,
16r	.
16a	tral-
16b/	-le-
=21	=21
4cc	-ra-
16b	-ra,
16r}	.
{16b	tral-
16cc	-le-
=22	=22
8dd'	-ral-
8b'	-la-
8cc'	-la-
8a'	-la-
=23	=23
4g	-la!
8r}	.
==	==
!!!AGN: Geselligkeits - Lied
!!!ONB: ESAC (Essen Associative Code) Database: FINK
!!!AMT: simple duple
!!!AIN: vox
!!!EED: Helmut Schaffrath
!!!EEV: 1.0
!!!GTL: Volkslieder
!!Text: G. W. Fink
!!!source: Musikalischer Hausschatz der Deutschen. Eine Sammlung von über 1000 Liedern und Gesängen mit Singstimmen und Klavierbegleitung. Leipzig, Litterarisches Verlags-Haus.
!!!page: 120
!!!URL-scan: https://www.digitale-sammlungen.de/en/view/bsb11144622?page=128,129
!!!ENC: Anna Maria Matuszewska
!!!EEV: 2024/29/07
*-	*-